X: 25109
T: Mairéad Gheal
R: slip jig
M: 9/8
K: Fmajor
c2f A2c FGA S||B2d G2f efg|f2a c2f cBA|
c2B Gfe cAB|c2f A2c FGA|B2d G2f efg|
a2c' f2a cBA|B2A Gfe cAB|c2f cGA F3|
|:cef fga fec|G2c BGc FGA|B2A Gfd ecB|
[1 A2f cGA F3 !coda!:|2 A2f cGA FGA||!coda! A2 c BGA F3||

